data/icons/bookmark.svg

<?xml version="1.0" encoding="UTF-8" standalone="no"?>
<svg
   xmlns:dc="http://purl.org/dc/elements/1.1/"
   xmlns:cc="http://creativecommons.org/ns#"
   xmlns:rdf="http://www.w3.org/1999/02/22-rdf-syntax-ns#"
   xmlns:svg="http://www.w3.org/2000/svg"
   xmlns="http://www.w3.org/2000/svg"
   xmlns:sodipodi="http://sodipodi.sourceforge.net/DTD/sodipodi-0.dtd"
   xmlns:inkscape="http://www.inkscape.org/namespaces/inkscape"
   height="16"
   width="18"
   version="1.1"
   viewBox="0 0 4.7624999 4.2333333"
   id="svg8"
   sodipodi:docname="bookmark.svg"
   inkscape:version="0.92.1 r15371">
  <metadata
     id="metadata14">
    <rdf:RDF>
      <cc:Work
         rdf:about="">
        <dc:format>image/svg+xml</dc:format>
        <dc:type
           rdf:resource="http://purl.org/dc/dcmitype/StillImage" />
        <dc:title></dc:title>
      </cc:Work>
    </rdf:RDF>
  </metadata>
  <defs
     id="defs12" />
  <sodipodi:namedview
     pagecolor="#ffffff"
     bordercolor="#666666"
     borderopacity="1"
     objecttolerance="10"
     gridtolerance="10"
     guidetolerance="10"
     inkscape:pageopacity="0"
     inkscape:pageshadow="2"
     inkscape:window-width="1404"
     inkscape:window-height="803"
     id="namedview10"
     showgrid="false"
     inkscape:zoom="15.170654"
     inkscape:cx="10.913233"
     inkscape:cy="1.9858742"
     inkscape:window-x="301"
     inkscape:window-y="148"
     inkscape:window-maximized="0"
     inkscape:current-layer="svg8" />
  <path
     style="opacity:1;fill:#bebebe;fill-opacity:1;fill-rule:nonzero;stroke:none;stroke-width:0.17424685;stroke-linecap:butt;stroke-linejoin:miter;stroke-miterlimit:4;stroke-dasharray:none;stroke-dashoffset:0;stroke-opacity:0.77142861"
     inkscape:transform-center-x="-0.0011666767"
     inkscape:transform-center-y="-0.19300667"
     d="M 3.526431,3.944199 C 3.3209651,4.0928982 2.5860058,3.5175576 2.3323777,3.5170867 2.07875,3.5166152 1.3416582,4.0892217 1.1367453,3.9397599 0.93183301,3.790298 1.2518928,2.9135109 1.1739654,2.6721475 1.096038,2.4307847 0.32369026,1.9067045 0.40251365,1.6656322 0.48133706,1.4245604 1.4141042,1.458017 1.6195704,1.3093171 1.8250366,1.160618 2.0847914,0.26411241 2.338419,0.2645835 2.5920474,0.26505465 2.8484695,1.162519 3.0533819,1.3119807 3.2582941,1.4614425 4.1911794,1.431452 4.2691062,1.6728148 4.3470332,1.9141782 3.5727443,2.4353851 3.4939212,2.6764573 3.4150972,2.9175292 3.7318974,3.7954993 3.526431,3.944199 Z"
     id="path4506"
     inkscape:connector-curvature="0" />
</svg>

<svg xmlns="http://www.w3.org/2000/svg" height="16" width="18" version="1.1" viewBox="0 0 4.7624999 4.2333333"><path d="m3.53 3.94c-0.21 0.15-0.94-0.42-1.2-0.42-0.25 0-0.99 0.57-1.19 0.42-0.208-0.15 0.11-1.03 0.03-1.27-0.07-0.24-0.846-0.76-0.767-1 0.078-0.25 1.01-0.21 1.22-0.36s0.46-1.05 0.72-1.04c0.25-0.005 0.51 0.89 0.71 1.04 0.21 0.15 1.14 0.12 1.22 0.36s-0.7 0.77-0.78 1.01c-0.07 0.24 0.24 1.12 0.04 1.26z" fill="#bebebe"/></svg>
